X: 2582
T:Lord Morpeth's Reel. HSJJ.028
M:4/4
L:1/8
Q:150
S:HSJ Jackson,Wyresdale,Lancs.1823
R:Reel
O:England
A:Lancashire
H:1823
Z:Chris Partington.
K:Bb
FB (e/d/c/B/) eB (e/d/c/B/)|FB (e/d/c/B/) Accd|FBdB fdbg|fdcB FBB2:|!
|:bfgf bBcB|GcBA Acce|dfBd GBEg|AcFe dBB2:|]
